X: 1
T: da New Rigged Ship #2
T: da Full Rigged Ship
C: Traditional Shetland
M: 4/4
L: 1/8
R: reel
K: Amix
   eg | "A"a2ab ageg | a2ab ageg | "G"g2gg fgag | "D"f2d2 d2 :|
|: ed | "A"cAcA "E7"B2ed | "A"cAcA "E7"E2ed | "A"cAcA "E7"B2ed | "A"c2A2 A2 :|[K:=c]
K: Gmaj=c
|: AB | "Am"cdec "G"BcdB | "Am"ABAF "Em"GFE2 | "Am"cdec "G"BcdB | "Am"c2A2 A2 :|
